X:702
T:Snouts and Ears
D:Jimmy Blue
Z:Nigel Gatherer
L:1/8
M:2/4
K:A
e | aA       A>B | ce ab/a/    | ge e/f/g/a/ | be ef/g/    |
    a/g/f/e/ dc  | Be e/f/e/d/ | cA BA/B/    | cA A       :|
B | cA       A>B | ce ef/e/    | dB B>c      | da a/f/e/d/ |
    cA       A>B | ce ef/e/    | dB a/f/e/d/ | cA A       :|
<end>
<start>
